symbolic/devices/drive-multidisk-symbolic.svg

<?xml version="1.0" encoding="UTF-8" standalone="no"?>
<!-- Created with Inkscape (http://www.inkscape.org/) -->

<svg
   xmlns:dc="http://purl.org/dc/elements/1.1/"
   xmlns:cc="http://creativecommons.org/ns#"
   xmlns:rdf="http://www.w3.org/1999/02/22-rdf-syntax-ns#"
   xmlns:svg="http://www.w3.org/2000/svg"
   xmlns="http://www.w3.org/2000/svg"
   xmlns:sodipodi="http://sodipodi.sourceforge.net/DTD/sodipodi-0.dtd"
   xmlns:inkscape="http://www.inkscape.org/namespaces/inkscape"
   width="16"
   height="16"
   id="svg4159"
   version="1.1"
   inkscape:version="0.92.4 5da689c313, 2019-01-14"
   viewBox="0 0 16 16"
   sodipodi:docname="drive-multidisk-symbolic.svg">
  <title
     id="title4518">Boston Icons</title>
  <defs
     id="defs4161">
    <inkscape:perspective
       sodipodi:type="inkscape:persp3d"
       inkscape:vp_x="0 : 8 : 1"
       inkscape:vp_y="0 : 1000 : 0"
       inkscape:vp_z="16 : 8 : 1"
       inkscape:persp3d-origin="8 : 5.3333333 : 1"
       id="perspective4709" />
  </defs>
  <sodipodi:namedview
     id="base"
     pagecolor="#ffffff"
     bordercolor="#00fff6"
     borderopacity="1"
     inkscape:pageopacity="0"
     inkscape:pageshadow="2"
     inkscape:zoom="22.197802"
     inkscape:cx="2.8418317"
     inkscape:cy="7.5720297"
     inkscape:current-layer="layer1"
     showgrid="false"
     inkscape:grid-bbox="true"
     inkscape:document-units="px"
     inkscape:window-width="1920"
     inkscape:window-height="1016"
     inkscape:window-x="0"
     inkscape:window-y="27"
     inkscape:window-maximized="1"
     showguides="false"
     inkscape:guide-bbox="true">
    <inkscape:grid
       type="xygrid"
       id="grid4707" />
  </sodipodi:namedview>
  <metadata
     id="metadata4164">
    <rdf:RDF>
      <cc:Work
         rdf:about="">
        <dc:format>image/svg+xml</dc:format>
        <dc:type
           rdf:resource="http://purl.org/dc/dcmitype/StillImage" />
        <dc:title>Boston Icons</dc:title>
        <cc:license
           rdf:resource="dribbble.com/chrisdiaz" />
        <dc:creator>
          <cc:Agent>
            <dc:title>Christian Díaz</dc:title>
          </cc:Agent>
        </dc:creator>
        <dc:description>diazchris.deviantart.com | dribbble.com/chrisdiaz</dc:description>
        <dc:date>2019</dc:date>
        <dc:publisher>
          <cc:Agent>
            <dc:title>Christian Díaz</dc:title>
          </cc:Agent>
        </dc:publisher>
        <dc:subject>
          <rdf:Bag>
            <rdf:li>GNOME icon Theme</rdf:li>
          </rdf:Bag>
        </dc:subject>
        <dc:identifier>christiandiaz.design [at] gmail [dot] com</dc:identifier>
      </cc:Work>
    </rdf:RDF>
  </metadata>
  <g
     id="layer1"
     inkscape:label="Layer 1"
     inkscape:groupmode="layer">
    <path
       style="opacity:1;fill:#252627;fill-opacity:1;stroke:none;stroke-width:2;stroke-linecap:square;stroke-linejoin:bevel;stroke-miterlimit:4;stroke-dasharray:none;stroke-opacity:1"
       d="M 2,0 V 2 4 H 4 V 2 h 8 v 2 h 2 V 2 0 Z M 2,5 V 7 9 H 4 V 7 h 8 v 2 h 2 V 7 5 Z m 0,5 v 6 h 12 v -6 z m 2,2 h 5 v 2 H 4 Z m 7,0 h 1 v 2 h -1 v -1 z"
       id="path867"
       inkscape:connector-curvature="0" />
  </g>
</svg>

<?xml version="1.0" encoding="UTF-8" standalone="no"?>
<!-- Created with Inkscape (http://www.inkscape.org/) -->

<svg
   xmlns:dc="http://purl.org/dc/elements/1.1/"
   xmlns:cc="http://creativecommons.org/ns#"
   xmlns:rdf="http://www.w3.org/1999/02/22-rdf-syntax-ns#"
   xmlns:svg="http://www.w3.org/2000/svg"
   xmlns="http://www.w3.org/2000/svg"
   xmlns:sodipodi="http://sodipodi.sourceforge.net/DTD/sodipodi-0.dtd"
   xmlns:inkscape="http://www.inkscape.org/namespaces/inkscape"
   width="16"
   height="16"
   id="svg4159"
   version="1.1"
   inkscape:version="0.92.4 5da689c313, 2019-01-14"
   viewBox="0 0 16 16"
   sodipodi:docname="drive-multidisk-symbolic.svg">
  <title
     id="title4518">Boston Icons</title>
  <defs
     id="defs4161">
    <inkscape:perspective
       sodipodi:type="inkscape:persp3d"
       inkscape:vp_x="0 : 8 : 1"
       inkscape:vp_y="0 : 1000 : 0"
       inkscape:vp_z="16 : 8 : 1"
       inkscape:persp3d-origin="8 : 5.3333333 : 1"
       id="perspective4709" />
  </defs>
  <sodipodi:namedview
     id="base"
     pagecolor="#ffffff"
     bordercolor="#00fff6"
     borderopacity="1"
     inkscape:pageopacity="0"
     inkscape:pageshadow="2"
     inkscape:zoom="22.197802"
     inkscape:cx="18.023515"
     inkscape:cy="7.5720297"
     inkscape:current-layer="layer1"
     showgrid="false"
     inkscape:grid-bbox="true"
     inkscape:document-units="px"
     inkscape:window-width="1920"
     inkscape:window-height="1016"
     inkscape:window-x="0"
     inkscape:window-y="27"
     inkscape:window-maximized="1"
     showguides="false"
     inkscape:guide-bbox="true">
    <inkscape:grid
       type="xygrid"
       id="grid4707" />
  </sodipodi:namedview>
  <metadata
     id="metadata4164">
    <rdf:RDF>
      <cc:Work
         rdf:about="">
        <dc:format>image/svg+xml</dc:format>
        <dc:type
           rdf:resource="http://purl.org/dc/dcmitype/StillImage" />
        <dc:title>Boston Icons</dc:title>
        <cc:license
           rdf:resource="dribbble.com/chrisdiaz" />
        <dc:creator>
          <cc:Agent>
            <dc:title>Christian Díaz</dc:title>
          </cc:Agent>
        </dc:creator>
        <dc:description>diazchris.deviantart.com | dribbble.com/chrisdiaz</dc:description>
        <dc:date>2019</dc:date>
        <dc:publisher>
          <cc:Agent>
            <dc:title>Christian Díaz</dc:title>
          </cc:Agent>
        </dc:publisher>
        <dc:subject>
          <rdf:Bag>
            <rdf:li>GNOME icon Theme</rdf:li>
          </rdf:Bag>
        </dc:subject>
        <dc:identifier>christiandiaz.design [at] gmail [dot] com</dc:identifier>
      </cc:Work>
    </rdf:RDF>
  </metadata>
  <g
     id="layer1"
     inkscape:label="Layer 1"
     inkscape:groupmode="layer">
    <path
       style="opacity:1;fill:#1a1a1a;fill-opacity:1;stroke:none;stroke-width:2;stroke-linecap:square;stroke-linejoin:bevel;stroke-miterlimit:4;stroke-dasharray:none;stroke-opacity:1"
       d="M 2 0 L 2 2 L 2 4 L 4 4 L 4 2 L 12 2 L 12 4 L 14 4 L 14 2 L 14 0 L 2 0 z M 2 5 L 2 7 L 2 9 L 4 9 L 4 7 L 12 7 L 12 9 L 14 9 L 14 7 L 14 5 L 2 5 z M 2 10 L 2 16 L 14 16 L 14 10 L 2 10 z M 4 12 L 9 12 L 9 14 L 4 14 L 4 12 z M 11 12 L 12 12 L 12 14 L 11 14 L 11 13 L 11 12 z "
       id="path867" />
  </g>
</svg>
